X:10
T:Brunetta or Pop the Question THO4.010, La
M:C
L:1/8
Z:vmp. Peter Dunk 2010/11.from a transcription by Fynn Titford-Mock 2007
B:Thompson's Compleat Collection of 200 Favourite Country Dances Volume IV.
Q:1/4=120
K:G
de/f/ gd dc B2|GB/A/ Ac/A/ d/B/A/G/ G/F/E/D/|de/f/ gd dcBe|eddF G>A G2:|
|:B2 AG cc c2|efge e2d2|gaba gfed|dedc B2G2:|
